src/lib/packages/icons/src/assets/line/scan.svg

<svg xmlns="http://www.w3.org/2000/svg" width="24" height="24" fill="none"><path fill="currentColor" d="M21 11.25H3a.75.75 0 0 0 0 1.5h1.25V18c0 2.418 1.332 3.75 3.75 3.75h8c2.418 0 3.75-1.332 3.75-3.75v-5.25H21a.75.75 0 0 0 0-1.5ZM18.25 18c0 1.577-.673 2.25-2.25 2.25H8c-1.577 0-2.25-.673-2.25-2.25v-5.25h12.5V18Zm-14-9V6c0-2.418 1.332-3.75 3.75-3.75h8c2.418 0 3.75 1.332 3.75 3.75v3a.75.75 0 0 1-1.5 0V6c0-1.577-.673-2.25-2.25-2.25H8c-1.577 0-2.25.673-2.25 2.25v3a.75.75 0 0 1-1.5 0Z"/></svg>

<svg width="24" height="24" viewBox="0 0 24 24" fill="none" xmlns="http://www.w3.org/2000/svg">
<path d="M21 11.25H3C2.586 11.25 2.25 11.586 2.25 12C2.25 12.414 2.586 12.75 3 12.75H4.25V18C4.25 20.418 5.582 21.75 8 21.75H16C18.418 21.75 19.75 20.418 19.75 18V12.75H21C21.414 12.75 21.75 12.414 21.75 12C21.75 11.586 21.414 11.25 21 11.25ZM18.25 18C18.25 19.577 17.577 20.25 16 20.25H8C6.423 20.25 5.75 19.577 5.75 18V12.75H18.25V18ZM4.25 9V6C4.25 3.582 5.582 2.25 8 2.25H16C18.418 2.25 19.75 3.582 19.75 6V9C19.75 9.414 19.414 9.75 19 9.75C18.586 9.75 18.25 9.414 18.25 9V6C18.25 4.423 17.577 3.75 16 3.75H8C6.423 3.75 5.75 4.423 5.75 6V9C5.75 9.414 5.414 9.75 5 9.75C4.586 9.75 4.25 9.414 4.25 9Z" fill="currentColor"/>
</svg>
